icons/svg/tshirt-crew.svg

﻿<?xml version="1.0" encoding="utf-8"?>
<!DOCTYPE svg PUBLIC "-//W3C//DTD SVG 1.1//EN" "http://www.w3.org/Graphics/SVG/1.1/DTD/svg11.dtd">
<svg xmlns="http://www.w3.org/2000/svg" xmlns:xlink="http://www.w3.org/1999/xlink" version="1.1" baseProfile="full" width="24" height="24" viewBox="0 0 24.00 24.00" enable-background="new 0 0 24.00 24.00" xml:space="preserve">
	<path fill="#000000" fill-opacity="1" stroke-width="0.2" stroke-linejoin="round" d="M 16,21L 8,21C 7.44771,21 7,20.5523 7,20L 6.99999,12.0732L 5.70342,13.1198C 5.3129,13.5103 4.67973,13.5103 4.28921,13.1198L 1.46078,10.2914C 1.07026,9.90085 1.07026,9.26769 1.46078,8.87717L 7.33792,3.00001L 9,3.00002C 9,4.10458 10.3431,5.00001 12,5.00001C 13.6568,5.00001 15,4.10458 15,3.00002L 16.6621,3.00001L 22.5392,8.87717C 22.9297,9.26769 22.9297,9.90086 22.5392,10.2914L 19.7108,13.1198C 19.3203,13.5103 18.6871,13.5103 18.2966,13.1198L 17,12.0732L 17,20C 17,20.5523 16.5523,21 16,21 Z M 20.4179,9.58429L 16.111,5.27742C 15.8047,5.63062 15.4291,5.94245 15,6.20032C 14.1643,6.70247 13.1256,7.00002 12,7.00002C 10.2963,7.00002 8.79171,6.31839 7.88896,5.27743L 3.5821,9.58429L 4.99631,10.9985L 7.99479,9.00003L 8.99999,9.00003L 8.99999,19L 15,19L 15,9.00003L 16.0052,9.00003L 19.0037,10.9985L 20.4179,9.58429 Z "/>
</svg>

<svg xmlns="http://www.w3.org/2000/svg" version="1.1" baseProfile="full" width="24" height="24" viewBox="0 0 24.00 24.00" xml:space="preserve"><path fill="#000" fill-opacity="1" stroke-width=".2" stroke-linejoin="round" d="M16 21H8c-.552 0-1-.448-1-1v-7.927L5.703 13.12c-.39.39-1.023.39-1.414 0l-2.83-2.83c-.39-.39-.39-1.022 0-1.413L7.34 3H9c0 1.105 1.343 2 3 2s3-.895 3-2h1.662l5.877 5.877c.39.39.39 1.024 0 1.414l-2.83 2.83c-.39.39-1.023.39-1.413 0L17 12.073V20c0 .552-.448 1-1 1zm4.418-11.416L16.11 5.277c-.305.354-.68.665-1.11.923-.836.502-1.874.8-3 .8-1.704 0-3.208-.682-4.11-1.723L3.58 9.584 4.996 11l3-2H9v10h6V9h1.005l3 1.998 1.413-1.414z"/></svg>
